!!!!SEGMENT: pl-kk--kk-i-7--051-003_palestrina-giovanni-pierluigi-da--missa-de-b-virgine-maria-sanctus.krn
!!!cenid: 16xx:869
!!!COM: Palestrina, Giovanni Pierluigi da
!!!COM-rismID: pe1904
!!!CDT: ~1525-1594/02/02
!!!CNT: Italian
!!!OPR: Missa de B Virgine Maria
!!!OTL: Sanctus
!!!OMV: 003
!!!PDT:
!!!AGN: Sacred; Mass
!!!SMS-siglum: PL-Kk
!!!SMS-shelfmark: Kk.I.7
!!!SMS-shelfwork: 051-003 M
!!!SMS-variant:
!!!SMS-altvar:
!!!NIFC-rismSourceID: 300258128
!!!NIFC-islandoraID: pl-kk:1956
!!!URL-pdf-islandora: https://repozytorium.nifc.pl/islandora/object/pl-kk%3A1956/datastream/PDF/view
!!!URL-scan: https://polish.musicsources.pl/pl/lokalizacje/galeria/rekopisy/6140 @EN{Scan on Polish Music Herritage in Open Access Website} @PL{Skany w portalu Dziedzictwo Muzyki Polskiej w otwartym dostępie}
!!!ONB-nifc: UWAGA: C (skan 0047-0049, s.88-90), A (0131-0132, s.82-85), T(0207-0209, s.77-80), B(0296-0297, s.78-80). Części Mszy: 1. Kyrie, 2. Et in terra, 3. Sanctus, 4. Agnus Dei. "Benedictus" partii S znajduje się na luźnej kartce włożonej między strony 88-89. "Agnus II" rozpisane na 5 głosów. Dodatkowy głos zapisany w księdze A na stronie 85
!!!AIN: 1 alto 1 bass 1 soprn 1 tenor
!!!key:
**kern	**text	**kern	**text	**kern	**text	**kern	**text
*part4	*part4	*part3	*part3	*part2	*part2	*part1	*part1
*staff4	*staff4	*staff3	*staff3	*staff2	*staff2	*staff1	*staff1
*group1	*	*group1	*	*group1	*	*group1	*
*Ibass	*	*Itenor	*	*Ialto	*	*Isoprn	*
*I"BASSVS.	*	*I"TENOR.	*	*I"ALTVS.	*	*I"CANTVS.	*
*I'B	*	*I'T	*	*I'A	*	*I'S	*
*clefF3	*	*clefC3	*	*clefC2	*	*clefG2	*
*k[b-]	*	*k[b-]	*	*k[b-]	*	*k[b-]	*
*F:	*	*F:	*	*F:	*	*F:	*
*M2/1	*	*M2/1	*	*M2/1	*	*M2/1	*
*met(C|)	*	*met(C|)	*	*met(C|)	*	*met(C|)	*
=1-	=1-	=1-	=1-	=1-	=1-	=1-	=1-
!LO:TX:t=P:problem=przy kluczu BB- B-	!	!LO:TX:t=P:problem=kreska pseudotaktowa	!	!LO:TX:t=P:problem=przy kluczu b- B-	!	!LO:TX:t=P:problem=kreska pseudotaktowa	!
00r	.	1rg	.	0g	San-	0r	.
.	.	0c	San-	.	.	.	.
=2-	=2-	=2-	=2-	=2-	=2-	=2-	=2-
.	.	.	.	0e	-ctus	0cc	San-
.	.	0A	-ct(us).	.	.	.	.
=3-	=3-	=3-	=3-	=3-	=3-	=3-	=3-
*	*	*	*	*	*ij	*	*
00r	.	.	.	0c	San-	0a	-ctus
.	.	1F	.	.	.	.	.
=4-	=4-	=4-	=4-	=4-	=4-	=4-	=4-
.	.	2.B-/	San-	0d	.	0f	San-
.	.	4c/	.	.	.	.	.
.	.	4d\	.	.	.	.	.
.	.	4e\	.	.	.	.	.
.	.	1f	.	.	.	.	.
=5-	=5-	=5-	=5-	=5-	=5-	=5-	=5-
!	!	!	!	!LO:TX:t=P:problem=kreska pseudotaktowa	!	!LO:TX:t=P:problem=kreska pseudotaktowa	!
0c	San-	.	.	1c	-ctus	0g	.
*	*	*	*	*	*Xij	*	*
.	.	4e\	.	.	.	.	.
.	.	4d\	.	.	.	.	.
!	!	!LO:TX:t=P:problem=kreska pseudotaktowa	!	!	!	!	!
.	.	1e	-ctus	2rc	.	.	.
.	.	.	.	2.c/	San-	.	.
=6-	=6-	=6-	=6-	=6-	=6-	=6-	=6-
!LO:TX:t=P:problem=kreska pseudotaktowa	!	!	!	!	!	!	!
0A	-ctus	2r	.	.	.	2.a/	.
.	.	.	.	4d/	.	.	.
*	*	*2\right	*	*2\right	*	*2\right	*
.	.	2.c\	San-	2e\	.	.	.
.	.	.	.	.	.	4g/	.
.	.	.	.	2f\	.	4a/	.
.	.	4d\	.	.	.	4b-/	.
!	!	!	!	!LO:TX:t=P:problem=kreska pseudotaktowa	!	!	!
.	.	2e\	.	2e\	.	2.cc\	.
=7-	=7-	=7-	=7-	=7-	=7-	=7-	=7-
*	*ij	*	*	*	*	*	*
0F	San-	1.f	.	0a	.	.	.
.	.	.	.	.	.	4a/	.
!	!	!	!	!	!	!LO:TX:t=P::problem=kreska pseudotaktowa&colon;między nutą a kropką	!
.	.	.	.	.	.	(2.dd\	.
.	.	.	.	.	.	4cc\)	.
.	.	2e\	.	.	.	1cc	.
=8-	=8-	=8-	=8-	=8-	=8-	=8-	=8-
!LO:TX:t=P:problem=kreska pseudotaktowa	!	!	!	!LO:TX:t=P:problem=kreska pseudotaktowa	!	!	!
0G	-ctus	0d	.	1g	-ctus	.	.
.	.	.	.	.	.	4b-/	.
.	.	.	.	.	.	4a/	.
*2\right	*Xij	*	*	*lig	*ij	*	*
.	.	.	.	1g	San-	1b-	.
=9-	=9-	=9-	=9-	=9-	=9-	=9-	=9-
!	!	!	!	!	!	!LO:TX:t=P:problem=kreska pseudotaktowa	!
2.A\	San-	2.c/	.	1e	.	0cc	-ctus
4G\	.	4B-/	.	.	.	.	.
*	*	*	*	*Xlig	*	*	*
4A\	.	1A	.	1c	.	.	.
4B-\	.	.	.	.	.	.	.
1c	.	.	.	.	.	.	.
=10-	=10-	=10-	=10-	=10-	=10-	=10-	=10-
!	!	!LO:TX:t=P:problem=kreska pseudotaktowa	!	!LO:TX:t=P:problem=kreska pseudotaktowa	!	!	!
*	*	*	*	*	*	*lig	*
.	.	1G	.	1g	-ctus	1dd	San-
!LO:TX:t=P:problem=kreska pseudotaktowa	!	!	!	!	!	!	!
2B-\	.	.	.	.	.	.	.
2.A\	.	2.c/	.	2r	.	1ee	.
.	.	.	.	1a	San-	.	.
4G\	.	4B-/	.	.	.	.	.
*	*	*	*	*	*	*Xlig	*
=11-	=11-	=11-	=11-	=11-	=11-	=11-	=11-
!	!	!	!	!	!	!LO:TX:t=P:problem=kreska pseudotaktowa	!
2F/	.	4A/	.	.	.	0ff	.
.	.	4F/	.	.	.	.	.
2E/	.	1c	.	2g\	.	.	.
1D	.	.	.	2f\	.	.	.
.	.	2B-/	.	2d/	.	.	.
=12-	=12-	=12-	=12-	=12-	=12-	=12-	=12-
*	*	*	*	*	*	*lig	*
!LO:TX:t=P:problem=cezura na 1. linii	!	!LO:TX:t=P:problem=kreska pseudotaktowa	!	!LO:TX:t=P:problem=kreska pseudotaktowa	!	!	!
2C,</	ctus	1c	.	0g	-ctus	1ee	.
*	*ij	*	*	*	*	*	*
1c	San-	.	.	.	.	.	.
!	!	!LO:TX:t=P:problem=cezura na 1. linii	!	!	!	!	!
.	.	2G,</	-ctus	.	.	1dd	.
*	*	*	*ij	*	*	*	*
2B-\	.	2.g\	San-	.	.	.	.
*	*	*	*	*	*Xij	*Xlig	*
=13-	=13-	=13-	=13-	=13-	=13-	=13-	=13-
!LO:TX:t=P:problem=kreska pseudotaktowa	!	!	!	!	!	!	!
1c	-ctus	.	.	2rc	.	1cc	.
*	*Xij	*	*	*	*	*	*
.	.	4f\	.	.	.	.	.
.	.	4e\	.	2.c/	San-	.	.
.	.	4d\	.	.	.	.	.
!	!	!	!	!	!	!LO:TX:t=P:problem=kreska pseudotaktowa	!
1rc	.	2e\	.	.	.	1cc	-ctus
.	.	.	.	4d/	.	.	.
.	.	2c\	.	4e/	.	.	.
.	.	.	.	4c/	.	.	.
=14-	=14-	=14-	=14-	=14-	=14-	=14-	=14-
2rA	.	2d\	.	2.f\	.	0a	San-
2.F\	San-	2c\	.	.	.	.	.
.	.	.	.	4e/	.	.	.
!	!	!LO:TX:t=P:problem=kreska pseudotaktowa	!	!	!	!	!
.	.	1f	-ctus	2d/	.	.	.
*	*	*	*Xij	*	*	*	*
4G\	.	.	.	.	.	.	.
4A\	.	.	.	2c/	.	.	.
4F\	.	.	.	.	.	.	.
=15-	=15-	=15-	=15-	=15-	=15-	=15-	=15-
!	!	!LO:TX:t=P:problem=kreska pseudotaktowa	!	!	!	!	!
2B-\	.	0r	.	2d/	.	0f	.
2A\	.	.	.	2c/	.	.	.
1d	.	.	.	2B-/	.	.	.
.	.	.	.	1f	.	.	.
=16-	=16-	=16-	=16-	=16-	=16-	=16-	=16-
!	!	!	!	!	!	!LO:TX:t=P:problem=kreska pseudotaktowa	!
2c\	.	0c	Do-	.	.	0g	.
2.C/	.	.	.	4e/	.	.	.
!	!	!	!	!LO:TX:t=P:problem=kreska pseudotaktowa	!	!	!
.	.	.	.	4d/	.	.	.
!	!	!	!	!LO:LB:g=original	!	!	!
!	!	!	!	!LO:TX:t=P:problem=przy kluczu B- b-	!	!	!
.	.	.	.	1e	.	.	.
4D/	.	.	.	.	.	.	.
4E/	.	.	.	.	.	.	.
!LO:TX:t=P:problem=kreska pseudotaktowa	!	!	!	!	!	!	!
4C/	.	.	.	.	.	.	.
=17-	=17-	=17-	=17-	=17-	=17-	=17-	=17-
!	!	!	!	!LO:TX:t=P:problem=cezura na 2. linii	!	!	!
2.F/	.	1.A	.	2c,</	-ctus	2.f/	.
.	.	.	.	1f	.	.	.
4E/	.	.	.	.	.	4g/	.
2D/	.	.	.	.	.	4a/	.
.	.	.	.	.	.	4b-/	.
!	!	!	!	!	!	!LO:TX:t=P:problem=kreska pseudotaktowa	!
2C/	.	2A/	-mi-	2e\	San-	2cc\	.
!	!	!LO:LB:g=original	!	!	!	!	!
=18-	=18-	=18-	=18-	=18-	=18-	=18-	=18-
0D	.	0F	-nus	2.d/	.	2b-\	.
.	.	.	.	.	.	2.a/	.
.	.	.	.	8c/L	.	.	.
.	.	.	.	8B-/J	.	.	.
.	.	.	.	2A/	.	.	.
.	.	.	.	.	.	4g/	.
.	.	.	.	2B-/	.	1f	.
=19-	=19-	=19-	=19-	=19-	=19-	=19-	=19-
0C	.	0G	De-	0c	.	.	.
.	.	.	.	.	.	4e/	.
!	!	!	!	!	!	!LO:TX:t=P:problem=kreska pseudotaktowa	!
.	.	.	.	.	.	4d/	.
!	!	!	!	!	!	!LO:LB:g=original	!
.	.	.	.	.	.	1e	.
=20-	=20-	=20-	=20-	=20-	=20-	=20-	=20-
*custos:A	*	*	*	*	*	*	*
!LO:TX:t=P:problem=kreska pseudotaktowa	!	!	!	!LO:TX:t=P:problem=kreska pseudotaktowa	!	!LO:TX:t=P:problem=kreska pseudotaktowa	!
1F	-ctus.	2F/	-us	0.c	-ctus	1f	-ctus
!	!	!LO:SIC:v:l:s=Sa-	!	!	!	!	!
.	.	1A	Sab-	.	.	.	.
!LO:LB:g=original	!	!	!	!	!	!	!
2r	.	.	.	.	.	1r	.
!	!	!LO:TX:t=P:problem=kreska pseudotaktowa	!	!	!	!	!
1A\	Do-	2F/	.	.	.	.	.
=21-	=21-	=21-	=21-	=21-	=21-	=21-	=21-
.	.	2.A/	.	.	.	2r	.
2F\	-mi-	.	.	.	.	1a	Do-
.	.	4B-/	.	.	.	.	.
(2A\	-n(us)	2c\	.	1r	.	.	.
!	!	!LO:TX:t=P:problem=kreska pseudotaktowa	!	!	!	!	!
2B-\)	.	2d\	.	.	.	2f/	-mi-
=22-	=22-	=22-	=22-	=22-	=22-	=22-	=22-
2c\	De-	2e\	.	2r	.	2.a/	-n(us)
!LO:TX:t=P:problem=kreska pseudotaktowa	!	!	!	!	!	!	!
2d\	-us	2f\	.	1a	Do-	.	.
!	!	!	!	!	!	!LO:TX:t=P:problem=kreska pseudotaktowa	!
.	.	.	.	.	.	4b-/	.
!LO:SIC:v:l:s=Sa-	!	!	!	!	!	!	!
2A\	Sab-	2e\	.	.	.	2cc\	De-
2B-\	.	2d\	.	2f\	-mi-	2.dd\	-us
=23-	=23-	=23-	=23-	=23-	=23-	=23-	=23-
*lig	*	*	*	*	*	*	*
1F	.	2.f\	.	1a	-n(us)	.	.
.	.	.	.	.	.	4cc\	.
!	!	!	!	!	!	!LO:SIC:v:l:s=Sa-	!
.	.	.	.	.	.	1cc	Sab-
.	.	4e\	-ba-	.	.	.	.
!	!	!LO:TX:t=P:problem=kreska pseudotaktowa	!	!	!	!	!
1G	.	1d	-oth.	2.g\	De-	.	.
.	.	.	.	.	.	2bn\	-ba-
.	.	.	.	4f\	.	.	.
*Xlig	*	*	*	*	*	*	*
=24-	=24-	=24-	=24-	=24-	=24-	=24-	=24-
!	!	!	!	!	!	!LO:TX:t=P:problem=kreska pseudotaktowa	!
1C	-ba-	2r	.	4e/	.	1cc	-oth.
.	.	.	.	4d/	.	.	.
.	.	1c	Do-	2e/	.	.	.
!LO:TX:t=P:problem=kreska pseudotaktowa	!	!	!	!LO:TX:t=P:problem=kreska pseudotaktowa	!	!	!
1F	-oth.	.	.	1A	-us	0r	.
!	!	!LO:TX:t=P:problem=kreska pseudotaktowa	!	!	!	!	!
.	.	2d\	-mi-	.	.	.	.
=25-	=25-	=25-	=25-	=25-	=25-	=25-	=25-
!LO:SIC:v:l:s=Sa-	!	!	!	!	!	!	!
2G\	Sab-	2e\	-n(us)	2rc	.	.	.
!	!	!	!	!LO:SIC:v:l:s=Sa	!	!	!
2A\	.	1f	De-	2c/	Sab-	.	.
!	!	!	!	!	!	!LO:TX:t=P:problem=kreska pseudotaktowa	!
1B-	.	.	.	1d	.	1r	.
.	.	4e\	.	.	.	.	.
.	.	4d\	.	.	.	.	.
=26-	=26-	=26-	=26-	=26-	=26-	=26-	=26-
2.A\	.	2c/	.	2e\	.	2r	.
!	!	!	!	!	!	!LO:SIC:v:l:s=Sa-	!
.	.	4F/	-us	1f	.	2cc\	Sab-
!	!	!LO:TX:t=P:problem=kreska pseudotaktowa	!	!	!	!	!
4G\	.	4G/	.	.	.	.	.
!	!	!LO:SIC:v:l:s=Sa-	!	!	!	!	!
2F/	.	4A/	Sab-	.	.	2dd\	.
.	.	4F/	.	.	.	.	.
2E/	.	1c	.	2g\	.	2ee\	.
=27-	=27-	=27-	=27-	=27-	=27-	=27-	=27-
2.D/	.	.	.	2a\	.	1.ff	.
.	.	2B-/	-ba-	2d/	-ba-	.	.
4D/	-ba-	.	.	.	.	.	.
!LO:TX:t=P:problem=kreska pseudotaktowa	!	!LO:TX:t=P:problem=kreska pseudotaktowa	!	!LO:TX:t=P:problem=kreska pseudotaktowa	!	!	!
0C	-oth	1c	-oth.	1g	-oth.	.	.
.	.	.	.	.	.	4ee\	.
!	!	!	!	!	!	!LO:TX:t=P:problem=kreska pseudotaktowa	!
.	.	.	.	.	.	4dd\	.
=28-	=28-	=28-	=28-	=28-	=28-	=28-	=28-
*	*	*	*ij	*	*	*	*
.	.	1g	Do-	2rc	.	4ee\	.
.	.	.	.	.	.	4dd\	.
!	!	!	!	!LO:SIC:v:l:s=Sa	!	!	!
.	.	.	.	2c/	Sab-	4cc\	.
.	.	.	.	.	.	4b-y\	.
0r	.	2f\	-mi-	2d/	.	2a/	.
.	.	2e\	-n(us)	2e/	.	2g/	.
=29-	=29-	=29-	=29-	=29-	=29-	=29-	=29-
.	.	1d	De-	1f	.	2a/	.
.	.	.	.	.	.	2b-/	.
!	!	!LO:TX:t=P:problem=kreska pseudotaktowa	!	!	!	!	!
2rD	.	1c	-us	2e\	.	1cc	.
2F\	Do-	.	.	2a\	.	.	.
*	*	*	*Xij	*	*	*	*
=30-	=30-	=30-	=30-	=30-	=30-	=30-	=30-
2G\	-mi-	2r	.	2g\	.	2b-/	.
!LO:TX:t=P:problem=kreska pseudotaktowa	!	!LO:SIC:v:l:s=Sa-	!	!	!	!	!
2A\	-n(us)	2c\	Sab-	2.f\	.	1a	.
1B-	De-	2.d\	.	.	.	.	.
.	.	.	.	4e/	.	.	.
.	.	.	.	1d	.	2g/	-ba-
.	.	4e\	.	.	.	.	.
=31-	=31-	=31-	=31-	=31-	=31-	=31-	=31-
!	!	!	!	!	!	!LO:TX:t=P:problem=kreska pseudotaktowa	!
2.A\	.	2f\	.	.	.	1a	-oth
.	.	2e\	.	2c/	.	.	.
4G\	-us	.	.	.	.	.	.
!LO:SIC:v:l:s=Sa-	!	!LO:LB:g=original	!	!	!	!	!
2F/	Sab-	2d\	.	2d/	.	2rg	.
*	*	*	*	*custos	*	*	*
!	!	!	!	!LO:TX:t=P:problem=kreska pseudotaktowa	!	!	!
!	!	!	!	!	!	!LO:SIC:v:l:s=Sa-	!
2E/	.	1c	.	2e\	.	2g/	Sab-
!	!	!	!	!LO:LB:g=original	!	!	!
=32-	=32-	=32-	=32-	=32-	=32-	=32-	=32-
1D	.	.	.	1.f	.	2a/	.
.	.	2B-/	.	.	.	2b-/	.
0C	.	2A/	.	.	.	2.cc\	.
.	.	2G/	.	4e/	.	.	.
.	.	.	.	4d/	.	4b-/	.
=33-	=33-	=33-	=33-	=33-	=33-	=33-	=33-
.	.	2.c/	.	1e	.	2a/	.
.	.	.	.	.	.	2g/	.
.	.	4B-/	.	.	.	.	.
1D	-ba-	4A/	.	0d	.	2f/	.
.	.	4G/	.	.	.	.	.
!	!	!LO:TX:t=P:problem=kreska pseudotaktowa	!	!	!	!	!
.	.	2F/	.	.	.	2a/	.
=34-	=34-	=34-	=34-	=34-	=34-	=34-	=34-
*lig	*	*	*	*	*	*	*
1BB-	.	2.B-/	.	.	.	2g/	.
.	.	.	.	.	.	1f	-ba-
.	.	4A/	.	.	.	.	.
1C	.	1G	-ba-	1c	-ba-	.	.
.	.	.	.	.	.	2e/	.
*Xlig	*	*	*	*	*	*	*
=35-	=35-	=35-	=35-	=35-	=35-	=35-	=35-
0Fl;	-oth.	0Al;	-oth.	0cl;	-oth.	0fl;	-oth.
!LO:LB:g=original	!	!	!	!	!	!LO:LB:g=original	!
=36||	=36||	=36||	=36||	=36||	=36||	=36||	=36||
*M2/1	*	*M2/1	*	*M2/1	*	*M2/1	*
*met(C|)	*	*met(C|)	*	*met(C|)	*	*met(C|)	*
!LO:TX:t=Pleni sunt\nTacet.	!	!	!	!	!	!	!
0ryy	.	0c	Ple-	1rcc	.	00r	.
.	.	.	.	0g	Ple-	.	.
=37-	=37-	=37-	=37-	=37-	=37-	=37-	=37-
0ryy	.	1B-	-ni	.	.	.	.
.	.	2.A/	sunt	1f	-ni	.	.
.	.	4B-/	.	.	.	.	.
=38-	=38-	=38-	=38-	=38-	=38-	=38-	=38-
!	!	!	!	!	!	!LO:TX:t=P:problem=kreska pseudotaktowa	!
0ryy	.	4c\	.	2.e\	sunt	1r	.
.	.	4d\	.	.	.	.	.
.	.	1c	cae-	.	.	.	.
.	.	.	.	4f\	.	.	.
.	.	.	.	4g\	cae-	0cc	Ple-
.	.	.	.	4a\	.	.	.
.	.	2B-/	.	2.g\	.	.	.
=39-	=39-	=39-	=39-	=39-	=39-	=39-	=39-
0ryy	.	2A/	.	.	.	.	.
.	.	.	.	4f\	.	.	.
.	.	4G/	.	1f	.	.	.
.	.	4F/	.	.	.	.	.
!	!	!	!	!	!	!LO:TX:t=P:problem=kreska pseudotaktowa	!
.	.	1G	.	.	.	1b-	-ni
!	!	!	!	!LO:TX:t=P:problem=kreska pseudotaktowa	!	!	!
.	.	.	.	2e\	.	.	.
=40-	=40-	=40-	=40-	=40-	=40-	=40-	=40-
!	!	!LO:TX:t=P:problem=kreska pseudotaktowa	!	!	!	!	!
0ryy	.	1F	-li	2.f\	.	2.a/	sunt
.	.	.	.	4g\	.	4b-/	.
!	!	!	!	!LO:TX:t=P:problem=kreska pseudotaktowa	!	!	!
.	.	1r	.	1a	-li	4cc\	.
.	.	.	.	.	.	4dd\	.
.	.	.	.	.	.	1cc	.
=41-	=41-	=41-	=41-	=41-	=41-	=41-	=41-
0ryy	.	0f	Ple-	1rcc	.	.	.
!	!	!	!	!	!	!LO:TX:t=P:problem=kreska pseudotaktowa	!
.	.	.	.	.	.	2b-\	.
.	.	.	.	0cc	Ple-	2a/	Cae-
.	.	.	.	.	.	4g/	.
.	.	.	.	.	.	4f/	.
=42-	=42-	=42-	=42-	=42-	=42-	=42-	=42-
0ryy	.	1e	-ni	.	.	1g	.
!	!	!	!	!	!	!LO:TX:t=P:problem=kreska pseudotaktowa	!
.	.	2.d\	sunt	1b-	-ni	1f	-li
.	.	4e\	.	.	.	.	.
=43-	=43-	=43-	=43-	=43-	=43-	=43-	=43-
0ryy	.	4f\	.	2.a\	sunt	0ff	Ple-
.	.	4g\	.	.	.	.	.
.	.	1f	.	.	.	.	.
.	.	.	.	4b-\	.	.	.
.	.	.	.	4cc\	cae-	.	.
.	.	.	.	4b-\	.	.	.
.	.	4e\	.	2.cc\	.	.	.
.	.	4d\	.	.	.	.	.
=44-	=44-	=44-	=44-	=44-	=44-	=44-	=44-
0ryy	.	1c	cae-	.	.	1ee	-ni
.	.	.	.	4b-\	.	.	.
.	.	.	.	4a\	.	.	.
!	!	!	!	!LO:TX:t=P:problem=kreska pseudotaktowa	!	!	!
.	.	.	.	4g\	.	.	.
.	.	0d	.	2f\	.	2.dd\	sunt
.	.	.	.	1b-	.	.	.
!	!	!	!	!	!	!LO:TX:t=P:problem=kreska pseudotaktowa	!
.	.	.	.	.	.	4ee\	.
=45-	=45-	=45-	=45-	=45-	=45-	=45-	=45-
0ryy	.	.	.	.	.	4ff\	.
.	.	.	.	.	.	4gg\	.
.	.	.	.	1a	.	1ff	.
.	.	1B-	.	.	.	.	.
.	.	.	.	2g\	-li	4ee\	.
.	.	.	.	.	.	4dd\	.
=46-	=46-	=46-	=46-	=46-	=46-	=46-	=46-
0ryy	.	1.A	-li	2.a\	et	2cc\	.
.	.	.	.	.	.	1cc	cae-
.	.	.	.	4g\	.	.	.
.	.	.	.	4e\	ter-	.	.
.	.	.	.	4f\	.	.	.
!	!	!	!	!	!	!LO:TX:t=P:problem=kreska pseudotaktowa	!
.	.	2B-/	et	2.g\	.	2b-\	.
=47-	=47-	=47-	=47-	=47-	=47-	=47-	=47-
0ryy	.	2c\	ter-	.	.	2a/	.
.	.	.	.	4f\	.	.	.
.	.	2d\	.	1f	.	2f/	.
!	!	!LO:TX:t=P:problem=kreska pseudotaktowa	!	!	!	!	!
.	.	1c	-ra	.	.	1g	.
!	!	!	!	!LO:TX:t=P:problem=kreska pseudotaktowa	!	!	!
.	.	.	.	2e\	.	.	.
!	!	!LO:LB:g=original	!	!	!	!	!
=48-	=48-	=48-	=48-	=48-	=48-	=48-	=48-
!	!	!	!	!	!	!LO:TX:t=P:problem=kreska pseudotaktowa	!
0ryy	.	2r	.	4f\	.	1a	-li,
.	.	.	.	4g\	.	.	.
.	.	1f	glo-	4a\	.	.	.
!	!	!	!	!LO:TX:t=P:problem=kreska pseudotaktowa	!	!	!
.	.	.	.	4f\	.	.	.
!	!	!	!	!LO:LB:g=original	!	!	!
.	.	.	.	1g	.	0r	.
.	.	2e\	-ri-	.	.	.	.
=49-	=49-	=49-	=49-	=49-	=49-	=49-	=49-
!	!	!	!	!LO:TX:t=P:problem=kreska pseudotaktowa	!	!	!
0ryy	.	2d\	.	0a	-ra	.	.
.	.	2c\	-a	.	.	.	.
*	*	*	*	*	*	*lig	*
.	.	2.d\	.	.	.	1f	et
.	.	4e\	.	.	.	.	.
=50-	=50-	=50-	=50-	=50-	=50-	=50-	=50-
!	!	!LO:TX:t=P:problem=kreska pseudotaktowa	!	!	!	!	!
0ryy	.	1f	.	2r	.	1a	.
.	.	.	.	1f	glo-	.	.
*	*	*	*	*	*	*Xlig	*
!	!	!	!	!	!	!LO:TX:t=P:problem=kreska pseudotaktowa	!
.	.	2.c/	.	.	.	1g	ter-
.	.	.	.	2e\	.	.	.
.	.	8B-/L	.	.	.	.	.
.	.	8A/J	.	.	.	.	.
=51-	=51-	=51-	=51-	=51-	=51-	=51-	=51-
0ryy	.	2B-/	.	2d/	-ri-	0g	-ra
.	.	2c/	.	2c/	-a	.	.
.	.	2B-/	tu-	2d/	.	.	.
!	!	!	!	!LO:TX:t=P:problem=kreska pseudotaktowa	!	!	!
.	.	2c/	.	2e\	.	.	.
=52-	=52-	=52-	=52-	=52-	=52-	=52-	=52-
!	!	!LO:TX:t=P:problem=kreska pseudotaktowa	!	!	!	!	!
0ryy	.	1F	-a	4f\	Tu-	0cc	glo-
.	.	.	.	4g\	.	.	.
.	.	.	.	4a\	.	.	.
.	.	.	.	4b-\	.	.	.
.	.	2rf	.	1.a	.	.	.
.	.	1f\	glo-	.	.	.	.
=53-	=53-	=53-	=53-	=53-	=53-	=53-	=53-
*	*	*	*	*	*	*lig	*
0ryy	.	.	.	.	.	1cc	.
!	!	!	!	!LO:TX:t=P:problem=kreska pseudotaktowa	!	!	!
.	.	2e\	.	2g\	-a	.	.
.	.	4d\	-ri-	2ra	.	1.dd	.
.	.	4c\	.	.	.	.	.
.	.	4d\	.	1b-	glo-	.	.
.	.	4e\	.	.	.	.	.
*	*	*	*	*	*	*Xlig	*
=54-	=54-	=54-	=54-	=54-	=54-	=54-	=54-
0ryy	.	1f	-â	.	.	.	.
.	.	.	.	2a\	.	4cc\	-ri-
!	!	!	!	!	!	!LO:TX:t=P:problem=kreska pseudotaktowa	!
.	.	.	.	.	.	4b-\	.
.	.	2e\	.	2g\	-ri-	2cc\	-a
!	!	!LO:TX:t=P:problem=kreska pseudotaktowa	!	!	!	!	!
.	.	2d\	.	2f\	-a	2.dd\	tu-
=55-	=55-	=55-	=55-	=55-	=55-	=55-	=55-
0ryy	.	2e\	.	2g\	.	.	.
.	.	.	.	.	.	4cc\	.
.	.	2f\	.	1a	.	1cc	.
.	.	1d	.	.	.	.	.
!	!	!	!	!	!	!LO:TX:t=P:problem=♮ above	!
.	.	.	.	4g\	.	2bn\	.
!	!	!	!	!LO:TX:t=P:problem=kreska pseudotaktowa	!	!	!
.	.	.	.	4f\	.	.	.
=56-	=56-	=56-	=56-	=56-	=56-	=56-	=56-
*	*	*	*	*	*	*custos:f	*
!	!	!	!	!	!	!LO:TX:t=P:problem=kreska pseudotaktowa	!
0ryy	.	2c\	.	2e\	tu-	0cc	-â
.	.	1f	.	2a\	.	.	.
!	!	!	!	!LO:TX:t=P:problem=kreska pseudotaktowa	!	!	!
.	.	.	.	1g	-a	.	.
.	.	2e\	.	.	.	.	.
!	!	!	!	!	!	!LO:LB:g=original	!
=57-	=57-	=57-	=57-	=57-	=57-	=57-	=57-
!	!	!	!	!	!	!LO:TX:t=P:problem=kreska pseudotaktowa	!
0ryy	.	2f\	.	2r	.	0r	.
.	.	4F/	.	1f	.	.	.
.	.	4G/	.	.	.	.	.
.	.	4A/	.	.	.	.	.
.	.	4B-/	.	.	.	.	.
.	.	2c/	.	2e\	glo-	.	.
=58-	=58-	=58-	=58-	=58-	=58-	=58-	=58-
0ryy	.	2B-/	.	2d/	.	0f	glo-
.	.	2A/	tu-	2c/	-ri-	.	.
.	.	1B-	.	2.d/	-a	.	.
.	.	.	.	4e\	.	.	.
=59-	=59-	=59-	=59-	=59-	=59-	=59-	=59-
!	!	!LO:TX:t=P:problem=kreska pseudotaktowa	!	!	!	!	!
0ryy	.	0F	-â	2.f\	.	0a	.
.	.	.	.	8e/L	.	.	.
.	.	.	.	8d/J	.	.	.
.	.	.	.	2c/	.	.	.
.	.	.	.	1f	.	.	.
=60-	=60-	=60-	=60-	=60-	=60-	=60-	=60-
0ryy	.	2rA	.	.	.	1g	-ri-
.	.	1c	glo-	4e/	.	.	.
.	.	.	.	4d/	.	.	.
!	!	!	!	!	!	!LO:TX:t=P:problem=kreska pseudotaktowa	!
.	.	.	.	2e\	.	1g	-a
.	.	2B-/	.	1g	.	.	.
=61-	=61-	=61-	=61-	=61-	=61-	=61-	=61-
0ryy	.	2.A/	-ri-	.	.	2.cc\	glo-
.	.	.	.	2f\	.	.	.
!	!	!	!	!	!	!LO:TX:t=P:problem=kreska pseudotaktowa	!
.	.	4G/	.	.	.	4b-y\	.
.	.	2A/	-a	2e\	.	2cc\	.
.	.	2B-/	.	2d/	.	2.dd\	.
=62-	=62-	=62-	=62-	=62-	=62-	=62-	=62-
0ryy	.	2c/	.	2e\	tu-	.	.
.	.	.	.	.	.	4cc\	.
.	.	2F/	.	2f\	.	1cc	.
*	*	*	*	*custos:c	*	*	*
!	!	!	!	!LO:TX:t=P:problem=kreska pseudotaktowa	!	!	!
!	!	!LO:TX:t=P:problem=kreska pseudotaktowa	!	!	!	!	!
.	.	1G	.	1d	.	.	.
!	!	!	!	!	!	!LO:SIC:v:s=2bn	!
.	.	.	.	.	.	2b-\	-ri-
!	!	!	!	!LO:LB:g=original	!	!	!
=63-	=63-	=63-	=63-	=63-	=63-	=63-	=63-
!	!	!	!	!	!	!LO:TX:t=P:problem=kreska pseudotaktowa	!
0ryy	.	2.A/	tu-	2c/	-a	1cc	-a
.	.	.	.	1a	glo-	.	.
.	.	4G/	.	.	.	.	.
.	.	2F/	.	.	.	2.cc\	Tu-
.	.	2E/	.	2g\	-ri-	.	.
.	.	.	.	.	.	4b-/	.
=64-	=64-	=64-	=64-	=64-	=64-	=64-	=64-
0ryy	.	2F/	.	2f\	-a	2a/	.
.	.	2c\	.	2e\	.	2g/	.
.	.	1F	.	1f	tu-	1a	.
=65-	=65-	=65-	=65-	=65-	=65-	=65-	=65-
0ryy	.	0cl;	-â	0el;	-â	0gl;	-a.
!	!	!LO:PB:g=original	!	!	!	!	!
=66||-	=66||-	=66||-	=66||-	=66||-	=66||-	=66||-	=66||-
*M3/2	*	*M3/2	*	*M3/2	*	*M3/1	*
*	*	*	*	*	*	*rscale:2	*
!LO:TX:t=P:problem=kreska pseudotaktowa	!	!	!	!	!	!LO:TX:t=P:problem=kreska pseudotaktowa	!
00.r	.	2r	.	1f	O-	0.r	.
.	.	2r	.	.	.	.	.
!	!	!LO:TX:t=P:problem=kreska pseudotaktowa	!	!LO:TX:t=P:problem=kreska pseudotaktowa	!	!	!
.	.	[<2c\	O-	2g\	-san-	.	.
=67-	=67-	=67-	=67-	=67-	=67-	=67-	=67-
.	.	2c]	.	2a\	-na	.	.
!	!	!	!	!LO:TX:t=P:problem=kreska pseudotaktowa	!	!	!
.	.	2d\	-san-	1b-	.	.	.
!	!	!LO:TX:t=P:problem=kreska pseudotaktowa	!	!	!	!	!
.	.	2e\	.	.	.	.	.
=68-	=68-	=68-	=68-	=68-	=68-	=68-	=68-
.	.	2.f\	-na	2.a\	in	1cc	O-
.	.	4e\	.	4g\	ex-	.	.
!	!	!LO:TX:t=P:problem=kreska pseudotaktowa	!	!	!	!LO:TX:t=P:problem=kreska pseudotaktowa	!
.	.	2d\	in	4a\	.	2dd\	-san-
.	.	.	.	4b-\	.	.	.
=69-	=69-	=69-	=69-	=69-	=69-	=69-	=69-
.	.	2c\	ex-	1cc	-cel-	2ee\	-na
!	!	!	!	!	!	!LO:TX:t=P:problem=kreska pseudotaktowa	!
.	.	1d	cel-	.	.	1ff	in
!	!	!	!	!LO:TX:t=P:problem=kreska pseudotaktowa	!	!	!
.	.	.	.	2b-\	.	.	.
=70-	=70-	=70-	=70-	=70-	=70-	=70-	=70-
!	!	!LO:TX:t=P:problem=cezura na 2. linii	!	!	!	!	!
2rD	.	2c,<\	-ſis	4cc\	.	2ee\	ex-
.	.	.	.	4b-\	.	.	.
2rD	.	2d\	in	4a\	.	2.ff\	-cel-
.	.	.	.	4g\	.	.	.
[<2F\	O-	1f	.	1a	.	.	.
.	.	.	.	.	.	4ee\	.
=71-	=71-	=71-	=71-	=71-	=71-	=71-	=71-
2F\]	.	.	.	.	.	1dd	.
!	!	!LO:TX:t=P:problem=kreska pseudotaktowa	!	!	!	!	!
2G\	-san-	1e	ex-	2b-\	-sis	.	.
!LO:TX:t=P:problem=kreska pseudotaktowa	!	!	!	!LO:TX:t=P:problem=kreska pseudotaktowa	!	!LO:TX:t=P:problem=kreska pseudotaktowa	!
2A\	.	.	.	2a\	.	2cc\	.
=72-	=72-	=72-	=72-	=72-	=72-	=72-	=72-
!	!	!	!	!	!	!LO:TX:t=P:problem=kreska pseudotaktowa	!
!	!	!	!	!	!	!LO:TX:t=P:problem=cezura na 2. linii	!
2.B-\	-na	2.d\	-cel-	2r	.	1.dd,<	-sis
.	.	.	.	2f\	O-	.	.
4A\	.	4c\	.	.	.	.	.
!LO:TX:t=P:problem=kreska pseudotaktowa	!	!	!	!LO:TX:t=P:problem=kreska pseudotaktowa	!	!	!
2G\	in	4d\	.	2g\	-san-	.	.
.	.	4e\	.	.	.	.	.
=73-	=73-	=73-	=73-	=73-	=73-	=73-	=73-
!	!	!	!	!	!	!LO:TX:t=P:problem=kreska pseudotaktowa	!
2F\	ex-	1f	.	2a\	-na	1.r	.
1G	-cel-	.	.	2b-\	in	.	.
!	!	!LO:TX:t=P:problem=kreska pseudotaktowa	!	!	!	!	!
.	.	2e\	.	2g\	ex-	.	.
=74-	=74-	=74-	=74-	=74-	=74-	=74-	=74-
!LO:TX:t=P:problem=cezura na 2. linii	!	!	!	!	!	!	!
2F,<\	-ſis	2.f\	.	1a	-cel-	1cc	O-
2A\	in	.	.	.	.	.	.
.	.	4e\	.	.	.	.	.
!LO:TX:t=P:problem=kreska pseudotaktowa	!	!LO:TX:t=P:problem=kreska pseudotaktowa	!	!	!	!LO:TX:t=P:problem=kreska pseudotaktowa	!
2B-\	ex-	2d\	.	1g	-ſis	2dd\	-san-
=75-	=75-	=75-	=75-	=75-	=75-	=75-	=75-
1c	-cel-	2c\	.	.	.	2ee\	-na
.	.	2d\	.	2r	.	2ff\	in
!	!	!LO:TX:t=P:problem=kreska pseudotaktowa	!	!LO:TX:t=P:problem=kreska pseudotaktowa	!	!LO:TX:t=P:problem=kreska pseudotaktowa	!
2B-\	.	2G/	-sis	[<2g	O-	2dd\	ex-
!	!	!	!	!	!	!LO:LB:g=original	!
=76-	=76-	=76-	=76-	=76-	=76-	=76-	=76-
2c\	.	2r	.	2g]	.	2ee\	-cel-
!	!	!	!	!	!	!LO:TX:t=P:problem=kreska pseudotaktowa	!
2F/	-ſis.	2c\	in	2a\	-san-	[<1ff	.
!LO:TX:t=P:problem=kreska pseudotaktowa	!	!LO:TX:t=P:problem=kreska pseudotaktowa	!	!	!	!	!
2r	.	2d\	ex-	2b-\	-na	.	.
=77-	=77-	=77-	=77-	=77-	=77-	=77-	=77-
1rc	.	2e\	-cel-	1cc	.	2ff]	.
.	.	2f\	.	.	.	2ee\	.
!	!	!	!	!LO:TX:t=P:problem=kreska pseudotaktowa	!	!LO:TX:t=P:problem=kreska pseudotaktowa	!
2ryy	.	2g\	.	2b-\	in	2dd\	.
=78-	=78-	=78-	=78-	=78-	=78-	=78-	=78-
1F	O-	1c	-sis.	1a	ex-	1cc	.
!	!	!LO:TX:t=P:problem=kreska pseudotaktowa	!	!	!	!LO:TX:t=P:problem=kreska pseudotaktowa	!
2G\	-san-	2r	.	2g\	.	2b-\	.
=79-	=79-	=79-	=79-	=79-	=79-	=79-	=79-
2A\	.	2c\	O-	2.f\	-cel-	1a	.
!LO:TX:t=P:problem=kreska pseudotaktowa	!	!	!	!	!	!	!
1B-	-na	2.d\	-san-	.	.	.	.
.	.	.	.	4e/	.	.	.
!	!	!	!	!LO:TX:t=P:problem=kreska pseudotaktowa	!	!LO:TX:t=P:problem=kreska pseudotaktowa	!
.	.	.	.	2d/	.	2g/	.
!	!	!LO:TX:t=P:problem=kreska pseudotaktowa	!	!	!	!	!
.	.	4e\	.	.	.	.	.
!	!	!	!	!LO:LB:g=original	!	!	!
=80-	=80-	=80-	=80-	=80-	=80-	=80-	=80-
!	!	!	!	!	!	!LO:TX:t=P:problem=cezura na 3. linii	!
2A\	in	2.f\	-na	2c/	.	2a,</	-sis
1B-	ex-	.	.	2d/	.	2f/	in
.	.	4e\	in	.	.	.	.
!	!	!LO:TX:t=P:problem=kreska pseudotaktowa	!	!LO:TX:t=P:problem=kreska pseudotaktowa	!	!LO:TX:t=P:problem=kreska pseudotaktowa	!
.	.	2d\	ex-	2B-/	.	2g/	ex-
=81-	=81-	=81-	=81-	=81-	=81-	=81-	=81-
!	!	!	!	!LO:TX:t=P:problem=cezura na 1. linii	!	!	!
2A\	.	2c/	.	2c,</	-sis	2a/	-cel-
!LO:TX:t=P:problem=kreska pseudotaktowa	!	!	!	!	!	!LO:TX:t=P:problem=kreska pseudotaktowa	!
1G	-cel-	1B-	-cel-	2d/	in	1b-	.
!	!	!	!	!LO:TX:t=P:problem=kreska pseudotaktowa	!	!	!
.	.	.	.	2e\	ex-	.	.
=82-	=82-	=82-	=82-	=82-	=82-	=82-	=82-
2F/	.	2.c/	.	2f\	-cel-	2a/	.
2C/	.	.	.	2e\	.	2.g/	.
.	.	4B-/	.	.	.	.	.
!	!	!LO:TX:t=P:problem=kreska pseudotaktowa	!	!	!	!	!
2F/	.	2A/	.	1d/	.	.	.
!	!	!	!	!	!	!LO:TX:t=P:problem=kreska pseudotaktowa	!
.	.	.	.	.	.	4f/	.
=83-	=83-	=83-	=83-	=83-	=83-	=83-	=83-
2BB-/	.	2B-/	.	.	.	1f	.
1C	.	1G	.	2c/	-sis	.	.
!	!	!	!	!LO:TX:t=P:problem=kreska pseudotaktowa	!	!LO:TX:t=P:problem=kreska pseudotaktowa	!
.	.	.	.	2rc	.	2e/	.
=84-	=84-	=84-	=84-	=84-	=84-	=84-	=84-
!	!	!	!	!	!	!LO:TX:t=P:problem=cezura na 1. linii	!
1F	-sis	2F/	-sis,	2c/	O-	2f,</	-sis
*	*	*	*	*	*	*	*ij
.	.	2rA	.	2d/	-san-	2f/	O-
!LO:TX:t=P:problem=kreska pseudotaktowa	!	!LO:TX:t=P:problem=kreska pseudotaktowa	!	!LO:TX:t=P:problem=kreska pseudotaktowa	!	!LO:TX:t=P:problem=kreska pseudotaktowa	!
2rD	.	[<2c\	O-	2e/	.	2g/	-san-
!	!	!LO:LB:g=original	!	!	!	!	!
=85-	=85-	=85-	=85-	=85-	=85-	=85-	=85-
!	!	!LO:TX:a:t=P:problem=brak zakończenia ligatury	!	!	!	!	!
1F	O-	2c]	.	2.f\	-na	1a	-na
.	.	2.d\	-san-	.	.	.	.
.	.	.	.	4e/	.	.	.
!LO:TX:t=P:problem=kreska pseudotaktowa	!	!	!	!LO:TX:t=P:problem=kreska pseudotaktowa	!	!LO:TX:t=P:problem=kreska pseudotaktowa	!
2G\	-san-	.	.	2d/	in	2b-\	in
!	!	!LO:TX:t=P:problem=kreska pseudotaktowa	!	!	!	!	!
.	.	4e\	.	.	.	.	.
=86-	=86-	=86-	=86-	=86-	=86-	=86-	=86-
2A\	.	1f	-na	2c/	ex-	1a	ex-
!LO:TX:t=P:problem=kreska pseudotaktowa	!	!	!	!	!	!	!
1B-	-na	.	.	1d	-cel-	.	.
.	.	4e\	in	.	.	2g/	-cel-
!	!	!LO:TX:t=P:problem=kreska pseudotaktowa	!	!	!	!	!
.	.	4d\	.	.	.	.	.
=87-	=87-	=87-	=87-	=87-	=87-	=87-	=87-
!	!	!	!	!LO:TX:t=P:problem=cezura na 2. linii	!	!	!
2A\	in	2e\	ex-	2c,</	-sis	2a/	-sis
*	*	*	*	*	*	*	*Xij
!LO:TX:t=P:problem=kreska pseudotaktowa	!	!	!	!	!	!	!
1B-	ex-	2.d\	-cel-	2f\	.	2rb	.
!	!	!	!	!LO:TX:t=P:problem=kreska pseudotaktowa	!	!LO:TX:t=P:problem=kreska pseudotaktowa	!
.	.	.	.	2g\	in	2rb	.
!	!	!LO:TX:t=P:problem=kreska pseudotaktowa	!	!	!	!	!
.	.	4e\	.	.	.	.	.
=88-	=88-	=88-	=88-	=88-	=88-	=88-	=88-
2A\	.	2f\	.	2a\	ex-	2cc\	O-
*custos:F	*	*	*	*	*	*	*
!LO:TX:t=P:problem=kreska pseudotaktowa	!	!LO:TX:t=P:problem=kreska pseudotaktowa	!	!	!	!	!
1G	-cel-	1B-	.	1b-	-cel-	2dd\	-san-
!	!	!	!	!	!	!LO:TX:t=P:problem=kreska pseudotaktowa	!
.	.	.	.	.	.	2ee\	-na
!LO:LB:g=original	!	!	!	!	!	!	!
=89-	=89-	=89-	=89-	=89-	=89-	=89-	=89-
2F\	.	2c\	.	2a\	.	2.ff\	in
!	!	!	!	!LO:TX:t=P:problem=kreska pseudotaktowa	!	!	!
2.B-\	.	2d\	.	1b-	.	.	.
.	.	.	.	.	.	4ee\	.
!	!	!LO:TX:t=P::problem=kreska pseudotaktowa&colon;między nutą a kropką	!	!	!	!	!
.	.	2.f\	.	.	.	2dd\	ex-
!LO:TX:t=P:problem=kreska pseudotaktowa	!	!	!	!	!	!	!
4A\	.	.	.	.	.	.	.
=90-	=90-	=90-	=90-	=90-	=90-	=90-	=90-
2F\	.	.	.	2a\	.	1cc	-cel-
.	.	4e\	.	.	.	.	.
!	!	!	!	!LO:TX:t=P:problem=kreska pseudotaktowa	!	!	!
1G	.	1d	.	1g	.	.	.
!	!	!	!	!	!	!LO:TX:t=P:problem=kreska pseudotaktowa	!
.	.	.	.	.	.	2b-\	.
=91-	=91-	=91-	=91-	=91-	=91-	=91-	=91-
2.A\	.	2c/	.	2e\	.	1cc	-sis
.	.	4F/	.	2c/	.	.	.
4G\	.	4G/	.	.	.	.	.
!LO:TX:t=P:problem=kreska pseudotaktowa	!	!	!	!	!	!LO:TX:t=P:problem=kreska pseudotaktowa	!
2F\	.	4A/	.	2d/	.	2r	.
.	.	4B-/	.	.	.	.	.
=92-	=92-	=92-	=92-	=92-	=92-	=92-	=92-
2E/	.	1c	.	2e\	.	1.r	.
!	!	!	!	!LO:TX:t=P:problem=kreska pseudotaktowa	!	!	!
1D	.	.	.	1f	.	.	.
.	.	2B-/	-sis	.	.	.	.
=93-	=93-	=93-	=93-	=93-	=93-	=93-	=93-
*	*	*	*	*	*	*	*ij
!LO:TX:t=P:problem=cezura na 1. linii	!	!LO:TX:t=P:problem=cezura na 3. linii	!	!	!	!	!
2C,</	-sis	1c,<	.	2e\	.	1g	O-
2E-/	in	.	.	2.g\	.	.	.
!	!	!LO:TX:t=P:problem=przekreślona synkopowana wartość	!	!	!	!LO:TX:t=P:problem=kreska pseudotaktowa	!
1D	ex-	1F	in	.	.	2a/	-san-
!	!	!	!	!LO:TX:t=P:problem=kreska pseudotaktowa	!	!	!
.	.	.	.	4f\	.	.	.
=94-	=94-	=94-	=94-	=94-	=94-	=94-	=94-
.	.	.	.	1f	.	2b-\	-na
!LO:TX:t=P:problem=kreska pseudotaktowa	!	!LO:TX:t=P:problem=kreska pseudotaktowa	!	!	!	!LO:TX:t=P:problem=kreska pseudotaktowa	!
1C	-cel-	1G	ex-	.	.	1cc	in
.	.	.	.	2e\	.	.	.
=95-	=95-	=95-	=95-	=95-	=95-	=95-	=95-
2.D/	.	2F/	-cel-	[1.fl;	-sis.	2a/	ex-
!	!	!	!	!	!	!LO:TX:t=P:problem=kreska pseudotaktowa	!
.	.	2A/	.	.	.	1dd	-cel-
4C/	.	.	.	.	.	.	.
!	!	!LO:TX:t=P:problem=kreska pseudotaktowa	!	!	!	!	!
2BB-/	.	2B-/	.	.	.	.	.
=96-	=96-	=96-	=96-	=96-	=96-	=96-	=96-
2AA/	.	2c\	.	1.f_	.	2cc\	.
*	*	*col	*	*	*	*	*
!	!	!LO:N:vis=0	!	!	!	!	!
1BB-	.	1d	.	.	.	1b-	.
*	*	*Xcol	*	*	*	*	*
=97-	=97-	=97-	=97-	=97-	=97-	=97-	=97-
!	!	!	!	!	!	!LO:TX:b:t=Vertat Folium et Videat Benedictus.	!
0.Fl;	-sis.	0.cl;	-sis.	0.f]	.	0.al;	-sis
*	*	*	*	*	*	*	*Xij
!	!	!LO:LB:g=original	!	!LO:LB:g=original	!	!LO:PB:g=original	!
=98||	=98||	=98||	=98||	=98||	=98||	=98||	=98||
*M2/1	*	*M2/1	*	*M2/1	*	*M2/1	*
*met(C|)	*	*met(C|)	*	*met(C|)	*	*met(C|)	*
*	*	*	*	*	*	*rscale:1	*
!	!	!	!	!	!	!LO:TX:a:t=Ad Miſsam de B.V. Maria	!
00r	.	1F	Be-	0r	.	0f	Be-
.	.	2A/	-ne-	.	.	.	.
.	.	2B-/	-di-	.	.	.	.
=99-	=99-	=99-	=99-	=99-	=99-	=99-	=99-
.	.	4F/	-ctus	1c	Be-	0a	.
.	.	4G/	.	.	.	.	.
.	.	4A/	.	.	.	.	.
.	.	4B-/	.	.	.	.	.
.	.	2c\	.	2e\	-ne-	.	.
!	!	!LO:TX:t=P:problem=kreska pseudotaktowa	!	!	!	!	!
.	.	2d\	Be-	2f\	-di-	.	.
=100-	=100-	=100-	=100-	=100-	=100-	=100-	=100-
!	!	!	!	!	!	!LO:TX:t=P:problem=kreska pseudotaktowa	!
0rG	.	2B-/	-ne-	2d/	.	0.g	-ne-
.	.	1c	-di-	1e	-ctus	.	.
.	.	4B-/	.	4d/	.	.	.
.	.	4A/	.	4c/	.	.	.
=101-	=101-	=101-	=101-	=101-	=101-	=101-	=101-
!LO:TX:t=P:problem=kreska pseudotaktowa	!	!	!	!	!	!	!
1rG	.	2B-/	.	2d/	Be-	.	.
!	!	!LO:TX:t=P:problem=kreska pseudotaktowa	!	!	!	!	!
.	.	2c\	.	2e/	-ne-	.	.
1F	Be-	2F/	-ctus	2f\	.	2.cc\	-di-
*	*	*	*ij	*	*	*	*
.	.	1f\	Be-	1a	.	.	.
.	.	.	.	.	.	4b-\	.
=102-	=102-	=102-	=102-	=102-	=102-	=102-	=102-
2A\	-ne-	.	.	.	.	2cc\	.
!	!	!	!	!LO:TX:t=P:problem=kreska pseudotaktowa	!	!LO:TX:t=P:problem=kreska pseudotaktowa	!
2B-\	.	2d\	.	2f\	.	2dd\	.
!	!	!	!	!	!	!LO:TX:t=P:problem=cezura na 2. linii	!
!	!	!	!	!	!	!LO:TX:t=P:problem=kreska pseudotaktowa	!
4F\	-di-	1f	.	1a	.	1cc,<	-ctus
4G\	.	.	.	.	.	.	.
4A\	.	.	.	.	.	.	.
!LO:TX:t=P:problem=kreska pseudotaktowa	!	!	!	!	!	!	!
4B-\	.	.	.	.	.	.	.
=103-	=103-	=103-	=103-	=103-	=103-	=103-	=103-
2c\	-ctus	2e\	.	2g\	-ne-	0r	.
2F\	qui	2.d\	.	2.f\	-di-	.	.
1A	ve-	.	.	.	.	.	.
.	.	4c/	.	4e/	.	.	.
.	.	1c\	ne-	4e/	.	.	.
.	.	.	.	8d/L	.	.	.
.	.	.	.	8c/J	.	.	.
=104-	=104-	=104-	=104-	=104-	=104-	=104-	=104-
!LO:TX:t=P:problem=kreska pseudotaktowa	!	!	!	!	!	!LO:TX:t=P:problem=kreska pseudotaktowa	!
1G	-nit	.	.	1d	.	1r	.
!	!	!LO:TX:t=P:problem=kreska pseudotaktowa	!	!	!	!	!
.	.	2B-/	-di-	.	.	.	.
!	!	!LO:TX:t=P:problem=kreska pseudotaktowa	!	!LO:TX:t=P:problem=kreska pseudotaktowa	!	!	!
*	*	*	*	*	*	*	*ij
2rA	.	0c	-ctus	1e	-ctus	1g	Be-
2c\	Be-	.	.	.	.	.	.
*	*	*	*Xij	*	*	*	*
=105-	=105-	=105-	=105-	=105-	=105-	=105-	=105-
2.A\	-ne-	.	.	2rc	.	0cc	.
.	.	.	.	2c/	Be-	.	.
4B-\	.	.	.	.	.	.	.
2c\	-di-	1r	.	2e\	-ne-	.	.
4F/	-ct(us)	.	.	2f\	.	.	.
4G/	.	.	.	.	.	.	.
=106-	=106-	=106-	=106-	=106-	=106-	=106-	=106-
4A\	.	2r	.	4c/	-di-	0cc	-ne-
4B-\	.	.	.	4d/	.	.	.
1c	qui	2c\	Be-	4e/	.	.	.
.	.	.	.	4f/	.	.	.
.	.	2e\	-ne-	2g\	-ctus	.	.
*custos:B-	*	*	*	*	*	*	*
!LO:TX:t=P:problem=kreska pseudotaktowa	!	!LO:TX:t=P:problem=kreska pseudotaktowa	!	!	!	!	!
2A\	ve-	2f\	-di-	2a\	Be-	.	.
!LO:LB:g=original	!	!	!	!	!	!	!
=107-	=107-	=107-	=107-	=107-	=107-	=107-	=107-
!	!	!LO:TX:t=P:problem=cezura na 3. linii	!	!	!	!	!
2B-\	.	2d,<\	-ctus	2f\	-ne-	0.dd	-di-
*	*	*	*ij	*	*	*	*
4G\	.	1g	Be-	1b-	.	.	.
4A\	.	.	.	.	.	.	.
4B-\	.	.	.	.	.	.	.
4c\	.	.	.	.	.	.	.
1d	.	4f\	.	4a\	.	.	.
!	!	!LO:TX:t=P:problem=kreska pseudotaktowa	!	!LO:TX:t=P:problem=kreska pseudotaktowa	!	!	!
.	.	4e\	.	4g\	.	.	.
=108-	=108-	=108-	=108-	=108-	=108-	=108-	=108-
.	.	2f\	.	2a\	.	.	.
!LO:TX:t=P:problem=kreska pseudotaktowa	!	!	!	!	!	!	!
2G\	.	2g\	.	2b-\	.	.	.
2c\	.	2e\	.	2g\	.	0.cc	-ctus
4F\	.	1f\	.	1a	.	.	.
4G\	.	.	.	.	.	.	.
!	!	!	!	!	!	!LO:LB:g=original	!
*	*	*	*	*	*	*	*Xij
=109-	=109-	=109-	=109-	=109-	=109-	=109-	=109-
4A\	.	.	.	.	.	.	.
4B-\	.	.	.	.	.	.	.
1c	.	4e\	.	4g\	.	.	.
.	.	4d\	.	4f\	.	.	.
.	.	2e\	.	2g\	-di-	.	.
!LO:TX:t=P:problem=kreska pseudotaktowa	!	!	!	!	!	!	!
2F\	.	2f\	-ne-	1cc	.	.	.
=110-	=110-	=110-	=110-	=110-	=110-	=110-	=110-
1G	.	1d	-di-	.	.	2r	.
.	.	.	.	2b-\	.	2dd\	Qui
!	!	!LO:TX:t=P:problem=kreska pseudotaktowa	!	!LO:TX:t=P:problem=kreska pseudotaktowa	!	!	!
2.C/	.	0.c	-ctus	1cc	-ctus	2ee\	ve-
*	*	*	*Xij	*	*	*	*
!	!	!	!	!	!	!LO:TX:t=P::problem=kreska pseudotaktowa&colon;między nutą a kropką	!
.	.	.	.	.	.	2.gg\	.
4D/	.	.	.	.	.	.	.
!	!	!LO:LB:g=original	!	!	!	!	!
=111-	=111-	=111-	=111-	=111-	=111-	=111-	=111-
2E/	.	.	.	2r	.	.	.
.	.	.	.	.	.	4ff\	.
2C/	.	.	.	2g\	Qui	4ee\	.
.	.	.	.	.	.	4dd\	.
!LO:TX:t=P:problem=kreska pseudotaktowa	!	!	!	!	!	!	!
0F	-nit	.	.	2a\	ve-	4cc/	.
.	.	.	.	.	.	4b-/	.
.	.	.	.	2.cc\	.	4a/	.
!	!	!	!	!	!	!LO:TX:t=P:problem=kreska pseudotaktowa	!
.	.	.	.	.	.	4g/	.
=112-	=112-	=112-	=112-	=112-	=112-	=112-	=112-
.	.	2r	.	.	.	2f/	.
.	.	.	.	4b-\	.	.	.
.	.	2c\	Qui	4a\	.	2cc\	.
.	.	.	.	4g\	.	.	.
00r	.	2d\	ve-	2.f\	.	2.a/	.
.	.	2.f\	.	.	.	.	.
*	*	*	*	*custos:a	*	*	*
!	!	!	!	!LO:TX:t=P:problem=kreska pseudotaktowa	!	!	!
.	.	.	.	4g\	.	4b-/	.
!	!	!	!	!LO:LB:g=original	!	!	!
=113-	=113-	=113-	=113-	=113-	=113-	=113-	=113-
.	.	.	.	2a\	.	2cc\	.
.	.	4e\	.	.	.	.	.
!	!	!	!	!	!	!LO:TX:t=P::problem=kreska pseudotaktowa&colon;między nutą a kropką	!
.	.	4d\	.	2.b-\	.	2.dd\	.
.	.	4c\	.	.	.	.	.
*	*	*lig	*	*	*	*	*
.	.	1B-	.	.	.	.	.
.	.	.	.	4a\	.	4cc\	.
.	.	.	.	2.g\	.	2.b-/	.
=114-	=114-	=114-	=114-	=114-	=114-	=114-	=114-
.	.	1d	.	.	.	.	.
.	.	.	.	4f\	.	4a/	.
.	.	.	.	2.f\	.	4a/	.
.	.	.	.	.	.	8g/L	.
!	!	!	!	!	!	!LO:TX:t=P:problem=kreska pseudotaktowa	!
.	.	.	.	.	.	8f/J	.
*	*	*Xlig	*	*	*	*	*
*	*	*lig	*	*	*	*	*
!LO:TX:t=P:problem=kreska pseudotaktowa	!	!	!	!	!	!	!
1r	.	1c	-nit	.	.	2g/	.
.	.	.	.	4e/	.	.	.
!	!	!	!	!LO:TX:t=P:problem=kreska pseudotaktowa	!	!	!
.	.	.	.	2e/	.	1cc\	.
=115-	=115-	=115-	=115-	=115-	=115-	=115-	=115-
!	!	!LO:TX:t=P:problem=kreska pseudotaktowa	!	!	!	!	!
2r	.	1G	.	1d	.	.	.
2G\	qui	.	.	.	.	2b-\	.
*	*	*Xlig	*	*	*	*	*
!	!	!	!	!	!	!LO:TX:t=P:problem=kreska pseudotaktowa	!
2A\	ve-	2r	.	4c/	.	0.cc	-nit
.	.	.	.	4d/	.	.	.
2.c\	.	2c\	qui	4e/	.	.	.
.	.	.	.	4f/	.	.	.
=116-	=116-	=116-	=116-	=116-	=116-	=116-	=116-
.	.	2e\	Ve-	2g\	.	.	.
4B-\	.	.	.	.	.	.	.
4A\	.	2.f\	.	2.a\	.	.	.
4G\	.	.	.	.	.	.	.
2F\	.	.	.	.	.	.	.
.	.	4e\	.	4g\	.	.	.
2A\	.	4c\	.	4e\	.	.	.
.	.	4d\	.	4f\	.	.	.
=117-	=117-	=117-	=117-	=117-	=117-	=117-	=117-
!	!	!	!	!	!	!LO:TX:t=P:problem=kreska pseudotaktowa	!
2G\	.	2e\	.	2g\	.	1r	.
!LO:TX:t=P:problem=kreska pseudotaktowa	!	!	!	!	!	!	!
2F\	.	1f	.	2a\	.	.	.
!LO:TX:t=P:problem=cezura na 1. linii	!	!	!	!LO:TX:t=P:problem=kreska pseudotaktowa	!	!LO:LB:g=original	!
2C,</	-nit	.	.	1g	-nit	2rg	.
1c\	qui	2e\	.	.	.	2g/	in
=118-	=118-	=118-	=118-	=118-	=118-	=118-	=118-
.	.	1d	.	1r	.	2a/	No-
!	!	!	!	!	!	!LO:TX:t=P:problem=kreska pseudotaktowa	!
2B-\	.	.	.	.	.	2b-\	.
!	!	!LO:TX:t=P:problem=kreska pseudotaktowa	!	!	!	!	!
2.A\	ve-	1c	-nit	2rc	.	2.cc\	.
.	.	.	.	2c/	in	.	.
4B-\	.	.	.	.	.	8b-/L	.
.	.	.	.	.	.	8a/J	.
=119-	=119-	=119-	=119-	=119-	=119-	=119-	=119-
2c\	.	1rg	.	2e\	No-	2g/	-mi-
!	!	!	!	!	!	!LO:TX:t=P:problem=cezura na 2. linii	!
2A\	.	.	.	2f\	-mi-	2a,</	-ne
!LO:TX:t=P:problem=kreska pseudotaktowa	!	!	!	!	!	!	!
1G	-nit	2rA	.	2.g\	-ne	2b-\	Do-
.	.	2G/	in	.	.	1dd	.
.	.	.	.	8f\L	.	.	.
.	.	.	.	8e\J	.	.	.
=120-	=120-	=120-	=120-	=120-	=120-	=120-	=120-
00r	.	2B-/	No-	2d/	Do-	.	.
.	.	2c\	-mi-	2e\	.	4cc\	.
!	!	!	!	!	!	!LO:TX:t=P:problem=kreska pseudotaktowa	!
.	.	.	.	.	.	4b-\	.
.	.	2.d\	-ne	2f\	.	2.a/	.
.	.	.	.	1a	.	.	.
.	.	8c/L	.	.	.	4b-/	.
.	.	8B-/J	.	.	.	.	.
=121-	=121-	=121-	=121-	=121-	=121-	=121-	=121-
.	.	2A/	.	.	.	2cc\	.
!	!	!	!	!	!	!LO:TX:t=P:problem=kreska pseudotaktowa	!
.	.	2B-/	.	4g\	.	2dd\	.
.	.	.	.	4f\	.	.	.
.	.	2c/	Do-	2e\	.	4g/	.
.	.	.	.	.	.	4a/	.
!	!	!	!	!LO:TX:t=P:problem=kreska pseudotaktowa	!	!	!
.	.	4G/	.	2g\	.	4b-/	.
!	!	!LO:TX:t=P:problem=kreska pseudotaktowa	!	!	!	!LO:TX:t=P:problem=kreska pseudotaktowa	!
.	.	4A/	.	.	.	4cc/	.
=122-	=122-	=122-	=122-	=122-	=122-	=122-	=122-
0r	.	4B-/	.	2.f\	.	4dd\	.
.	.	4c/	.	.	.	4ee\	.
.	.	4d/	.	.	.	1ff	.
.	.	4e/	.	4g\	.	.	.
.	.	2f\	.	4a\	.	.	.
.	.	.	.	4b-\	.	.	.
.	.	2c\	-mi-	1cc	.	2ee\	-mi-
=123-	=123-	=123-	=123-	=123-	=123-	=123-	=123-
!LO:TX:t=P:problem=kreska pseudotaktowa	!	!LO:TX:t=P:problem=kreska pseudotaktowa	!	!	!	!LO:TX:t=P:problem=kreska pseudotaktowa	!
1r	.	0g	-ni.	.	.	1dd	-ni
.	.	.	.	4b-\	.	.	.
!	!	!	!	!LO:TX:t=P:problem=kreska pseudotaktowa	!	!	!
.	.	.	.	4a\	.	.	.
2r	.	.	.	2.b-\	.	2r	.
!LO:TX:t=P:problem=kreska pseudotaktowa	!	!	!	!	!	!LO:TX:t=P:problem=kreska pseudotaktowa	!
2G\	in	.	.	.	.	2dd\	in
.	.	.	.	4a\	.	.	.
!	!	!	!	!	!	!LO:LB:g=original	!
=124-	=124-	=124-	=124-	=124-	=124-	=124-	=124-
2B-\	No-	0r	.	1g	.	2dd\	No-
2c\	-mi-	.	.	.	.	2ee\	.
2.d\	-ne	.	.	2f\	.	2.ff\	.
.	.	.	.	1a	.	.	.
8c\L	.	.	.	.	.	8ee\L	.
*custos:A	*	*	*	*	*	*	*
!LO:TX:t=P:problem=kreska pseudotaktowa	!	!	!	!	!	!	!
!	!	!	!	!	!	!LO:TX:t=P:problem=kreska pseudotaktowa	!
8B-\J	.	.	.	.	.	8dd\J	.
!LO:LB:g=original	!	!	!	!	!	!	!
=125-	=125-	=125-	=125-	=125-	=125-	=125-	=125-
!	!	!LO:TX:t=P:problem=kreska pseudotaktowa	!	!	!	!	!
2A\	Do-	1r	.	.	.	2cc\	-mi-
2B-\	.	.	.	4g\	mi-	2dd\	.
.	.	.	.	4f\	.	.	.
!	!	!	!	!LO:TX:t=P:problem=kreska pseudotaktowa	!	!LO:TX:t=P:problem=cezura na 1. linii	!
2.c\	.	2r	.	1e	-ni	1g,<	-ne
.	.	2c\	in	.	.	.	.
4B-\	.	.	.	.	.	.	.
=126-	=126-	=126-	=126-	=126-	=126-	=126-	=126-
!	!	!	!	!LO:TX:t=P:problem=kreska pseudotaktowa	!	!	!
1A	.	2e\	No-	0r	.	1cc	Do-
*	*	*custos:g	*	*	*	*	*
!	!	!LO:TX:t=P:problem=kreska pseudotaktowa	!	!	!	!	!
.	.	2f\	-mi-	.	.	.	.
!	!	!LO:LB:g=original	!	!	!	!	!
2.G\	.	2.g\	-ne	.	.	2.b-\	.
!LO:TX:t=P:problem=kreska pseudotaktowa	!	!	!	!	!	!LO:TX:t=P:problem=kreska pseudotaktowa	!
4A\	.	8f\L	.	.	.	4cc\	.
.	.	8e\J	.	.	.	.	.
!	!	!	!	!LO:PB:g=original	!	!	!
=127-	=127-	=127-	=127-	=127-	=127-	=127-	=127-
4B-\	.	2.d\	Do-	2r	.	4dd\	.
4c\	.	.	.	.	.	4ee\	.
1d	.	.	.	2f\	in	1ff	.
.	.	4e\	.	.	.	.	.
.	.	2f\	.	2a\	No-	.	.
!	!	!LO:TX:t=P:problem=kreska pseudotaktowa	!	!	!	!	!
2G\	-mi-	2g\	.	2b-\	.	4ee\	-mi-
.	.	.	.	.	.	4dd\	.
=128-	=128-	=128-	=128-	=128-	=128-	=128-	=128-
!LO:TX:t=P:problem=kreska pseudotaktowa	!	!	!	!	!	!LO:TX:t=P:problem=kreska pseudotaktowa	!
1c	-ni	2e\	.	2.cc\	-mi-	1ee	-ni,
.	.	4c\	.	.	.	.	.
.	.	4d\	.	8b-\L	.	.	.
!	!	!	!	!LO:TX:t=P:problem=kreska pseudotaktowa	!	!	!
.	.	.	.	8a\J	.	.	.
0r	.	4e\	.	2g\	-ne	2r	.
.	.	4c\	.	.	.	.	.
.	.	2f\	.	2a\	Do-	2cc\	in
=129-	=129-	=129-	=129-	=129-	=129-	=129-	=129-
.	.	2B-/	.	2b-\	.	2dd\	No-
!	!	!	!	!	!	!LO:TX:t=P:problem=kreska pseudotaktowa	!
.	.	2c/	-mi-	2g\	.	2ee\	.
!	!	!LO:TX:t=P:problem=kreska pseudotaktowa	!	!	!	!	!
2rE	.	1F	-ni.	1.a	.	2.ff\	.
*	*ij	*	*	*	*	*	*
!LO:TX:t=P:problem=kreska pseudotaktowa	!	!	!	!	!	!	!
2F\	in	.	.	.	.	.	.
.	.	.	.	.	.	8ee\L	.
!	!	!	!	!	!	!LO:TX:t=P:problem=kreska pseudotaktowa	!
.	.	.	.	.	.	8dd\J	.
!	!	!	!	!	!	!LO:LB:g=original	!
=130-	=130-	=130-	=130-	=130-	=130-	=130-	=130-
2A\	No-	1r	.	.	.	2cc\	-mi-
!	!	!	!	!	!	!LO:TX:t=P:problem=kreska pseudotaktowa	!
2B-\	-mi-	.	.	4g\	.	2dd\	-ne
.	.	.	.	4f\	.	.	.
4c\	-ne	2rA	.	2e\	.	2g/	Do-
4B-\	.	.	.	.	.	.	.
4A\	.	2F/	in	1f	.	4a/	.
!	!	!	!	!	!	!LO:TX:t=P:problem=kreska pseudotaktowa	!
4G\	.	.	.	.	.	4b-/	.
=131-	=131-	=131-	=131-	=131-	=131-	=131-	=131-
2F\	Do-	2A/	No-	.	.	4cc/	.
.	.	.	.	.	.	4a/	.
!	!	!	!	!LO:TX:t=P:problem=kreska pseudotaktowa	!	!	!
2G\	-mi-	2B-/	.	2d/	.	2.dd\	.
!LO:TX:t=P:problem=kreska pseudotaktowa	!	!	!	!	!	!	!
1C	-ni	2.c/	-mi-	2.e/	.	.	.
*	*Xij	*	*	*	*	*	*
.	.	.	.	.	.	4cc\	.
.	.	.	.	.	.	1cc\	.
.	.	8B-/L	.	8d/L	.	.	.
.	.	8A/J	.	8c/J	.	.	.
=132-	=132-	=132-	=132-	=132-	=132-	=132-	=132-
!	!	!LO:TX:t=P:problem=kreska pseudotaktowa	!	!	!	!	!
2r	.	1G	-ne	2d/	.	.	.
2G\	Do-	.	.	2d/	.	2bn\	-mi-
!	!	!	!	!	!	!LO:TX:t=P:problem=kreska pseudotaktowa	!
2A\	.	2.c\	Do-	4c/	.	0.cc	-ni
.	.	.	.	4d/	.	.	.
2.c\	.	.	.	4e/	.	.	.
.	.	4d\	.	4f/	.	.	.
=133-	=133-	=133-	=133-	=133-	=133-	=133-	=133-
.	.	2e\	.	2g\	.	.	.
4B-\	.	.	.	.	.	.	.
4A\	.	1f	.	1a	.	.	.
4G\	.	.	.	.	.	.	.
2F/	.	.	.	.	.	.	.
!	!	!	!	!LO:TX:t=P:problem=kreska pseudotaktowa	!	!	!
2C/	.	2e\	.	2g\	.	.	.
=134-	=134-	=134-	=134-	=134-	=134-	=134-	=134-
1.F	.	2f\	.	2.a\	.	2.cc\	Do-
.	.	2F/	.	.	.	.	.
.	.	.	.	4g\	.	4b-y/	.
.	.	2.A/	.	4f\	.	4a/	.
.	.	.	.	4e\	.	4g/	.
2F/	-mi-	.	.	1f	.	1a	.
.	.	4B-/	-mi-	.	.	.	.
=135-	=135-	=135-	=135-	=135-	=135-	=135-	=135-
!LO:TX:b:t=Osanna Da Capo.	!	!LO:TX:b:t=Osanna Da Capo	!	!	!	!	!
0.Cl;	-ni.	0l.c;	-ni.	.	.	.	.
.	.	.	.	2e\	-mi-	2g/	-mi-
!	!	!	!	!LO:TX:b:t=Osanna Da Capo	!	!LO:TX:b:t=Osanna Da Capo.	!
.	.	.	.	0el;	-ni.	0gl;	-ni.
==	==	==	==	==	==	==	==
*-	*-	*-	*-	*-	*-	*-	*-
!!!system-decoration: [g1]
!!!RDF**kern: > = above
!!!RDF**kern: < = below
!!!RDF**kern: l = terminal long
!!!ENC: Andrzej Kubiczek
!!!END: 2021-03-17
!!!ENC: Kamil Watkowski
!!!END: 2021-03-01
